public/svg/icons/phone.svg

<svg width="20" height="20" viewBox="0 0 20 20" fill="none" xmlns="http://www.w3.org/2000/svg">
<path d="M2.24689 3.59957C3.06317 2.33756 3.78029 1.54795 5.12302 0.620343C5.52397 0.343346 6.019 0.430906 6.22896 0.79678L8.13971 4.12641C8.32099 4.44231 8.23736 4.87812 7.93803 5.17745L6.63672 6.47877C6.37287 6.74261 5.86669 7.5245 5.98613 7.82692C7.13589 10.7382 8.43972 11.9916 11.3129 13.1503C11.6164 13.2727 12.4016 12.7673 12.6674 12.5015L13.9647 11.2042C14.2641 10.9048 14.6999 10.8212 15.0158 11.0025L18.3534 12.9178C18.716 13.1259 18.8061 13.6149 18.5358 14.0149C17.6813 15.2794 16.9056 16.0282 15.5472 16.8961C15.2972 17.0559 14.8263 16.9789 14.7621 16.9788C10.4197 16.9705 2.06295 8.61383 2.15606 4.38062C2.15858 4.26615 2.08675 3.84716 2.24689 3.59957Z" fill="#0F2B44"/>
</svg>

<svg width="20" height="20" fill="none" xmlns="http://www.w3.org/2000/svg"><path d="M2.247 3.6C3.063 2.338 3.78 1.548 5.123.62c.401-.277.896-.19 1.106.177l1.91 3.33c.182.315.098.751-.201 1.05L6.637 6.48c-.264.264-.77 1.045-.65 1.348 1.149 2.911 2.453 4.165 5.326 5.323.303.123 1.089-.383 1.354-.649l1.298-1.297c.3-.3.735-.383 1.05-.202l3.338 1.916c.363.208.453.697.183 1.097-.855 1.264-1.63 2.013-2.989 2.881-.25.16-.72.083-.785.083-4.342-.01-12.7-8.366-12.606-12.6.003-.115-.07-.534.09-.781z" fill="#0F2B44"/></svg>
